icons/glyphs/glyph-bug.svg

<?xml version="1.0" encoding="UTF-8" standalone="no"?><svg height="16" viewBox="0 0 4.2333332 4.2333332" width="16" xmlns="http://www.w3.org/2000/svg"><sodipodi:namedview/><metadata><rdf:RDF><cc:Work><dc:format>image/svg+xml</dc:format><dc:type/><dc:title/></cc:Work></rdf:RDF></metadata><path d="m8 0c-1.26049 0-2.4078523.43088064-3.3398438 1.1308594l-.7089843-.7089844c-.1167326-.11673272-.2695326-.17578125-.421875-.17578125-.1523426.00000004-.3051425.05904865-.421875.17578125-.2334656.23346558-.2334652.6083316 0 .8417969l.6796875.6796875c-.7221993.8372409-1.2127182 1.8805574-1.3339844 3.0449218h11.09375c-.121266-1.1643644-.611785-2.2076809-1.333984-3.0449218l.679687-.6796875c.233465-.2334641.233465-.60833056 0-.8417969-.116732-.11673207-.269532-.17578095-.421875-.17578125-.152341-.0000003-.30514.05904797-.421875.17578125l-.708984.7089844c-.931992-.69997876-2.0793538-1.1308594-3.339844-1.1308594zm-5.578125 6.1484375v.4667969h-.859375c-.3745527 0-.67773438.3012281-.67773438.6757812 0 .374555.30318168.6757813.67773438.6757813h.859375v1.6484375h-.859375c-.3745527 0-.67773436.3012274-.67773438.6757816 0 .374555.30318168.675781.67773438.675781h.8867188c.2722324 2.832464 2.6446594 5.033203 5.5507812 5.033203 2.906122 0 5.278549-2.200739 5.550781-5.033203h.888672c.374551 0 .675781-.301229.675781-.675781 0-.3745557-.301228-.6757816-.675781-.6757816h-.861328v-1.6484375h.861328c.374551 0 .675781-.3012282.675781-.6757813 0-.3745549-.301228-.6757812-.675781-.6757812h-.861328v-.4667969z" fill="#d0d0d0" stroke-width="1.3" transform="scale(.26458333)"/></svg>

<?xml version="1.0" encoding="UTF-8" standalone="no"?>
<!-- Created with Inkscape (http://www.inkscape.org/) -->

<svg
   xmlns:dc="http://purl.org/dc/elements/1.1/"
   xmlns:cc="http://creativecommons.org/ns#"
   xmlns:rdf="http://www.w3.org/1999/02/22-rdf-syntax-ns#"
   xmlns:svg="http://www.w3.org/2000/svg"
   xmlns="http://www.w3.org/2000/svg"
   xmlns:sodipodi="http://sodipodi.sourceforge.net/DTD/sodipodi-0.dtd"
   xmlns:inkscape="http://www.inkscape.org/namespaces/inkscape"
   width="16"
   height="16"
   viewBox="0 0 4.2333332 4.2333332"
   version="1.1"
   id="svg8"
   inkscape:version="0.92+devel (ab74a354e7, 2017-08-02, custom)"
   sodipodi:docname="glyph-bug.svg">
  <defs
     id="defs2" />
  <sodipodi:namedview
     id="base"
     pagecolor="#002466"
     bordercolor="#ffffff"
     borderopacity="0.38039216"
     inkscape:pageopacity="1"
     inkscape:pageshadow="2"
     inkscape:zoom="26"
     inkscape:cx="8"
     inkscape:cy="8"
     inkscape:document-units="px"
     inkscape:current-layer="svg8"
     inkscape:document-rotation="0"
     showgrid="false"
     inkscape:showpageshadow="false"
     borderlayer="true"
     inkscape:window-width="1920"
     inkscape:window-height="1051"
     inkscape:window-x="0"
     inkscape:window-y="0"
     inkscape:window-maximized="1"
     units="px"
     inkscape:snap-page="true"
     inkscape:snap-grids="false"
     inkscape:snap-to-guides="false"
     inkscape:object-paths="true" />
  <metadata
     id="metadata5">
    <rdf:RDF>
      <cc:Work
         rdf:about="">
        <dc:format>image/svg+xml</dc:format>
        <dc:type
           rdf:resource="http://purl.org/dc/dcmitype/StillImage" />
        <dc:title></dc:title>
      </cc:Work>
    </rdf:RDF>
  </metadata>
  <path
     style="fill:#d0d0d0;stroke-width:1.29999995"
     d="M 8 0 C 6.73951 0 5.5921477 0.43088064 4.6601562 1.1308594 L 3.9511719 0.421875 C 3.8344393 0.30514228 3.6816393 0.24609375 3.5292969 0.24609375 C 3.3769543 0.24609379 3.2241544 0.3051424 3.1074219 0.421875 C 2.8739563 0.65534058 2.8739567 1.0302066 3.1074219 1.2636719 L 3.7871094 1.9433594 C 3.0649101 2.7806003 2.5743912 3.8239168 2.453125 4.9882812 L 13.546875 4.9882812 C 13.425609 3.8239168 12.93509 2.7806003 12.212891 1.9433594 L 12.892578 1.2636719 C 13.126043 1.0302078 13.126043 0.65534134 12.892578 0.421875 C 12.775846 0.30514293 12.623046 0.24609405 12.470703 0.24609375 C 12.318362 0.24609345 12.165563 0.30514172 12.048828 0.421875 L 11.339844 1.1308594 C 10.407852 0.43088064 9.2604902 0 8 0 z M 2.421875 6.1484375 L 2.421875 6.6152344 L 1.5625 6.6152344 C 1.1879473 6.6152344 0.88476562 6.9164625 0.88476562 7.2910156 C 0.88476562 7.6655706 1.1879473 7.9667969 1.5625 7.9667969 L 2.421875 7.9667969 L 2.421875 9.6152344 L 1.5625 9.6152344 C 1.1879473 9.6152344 0.88476564 9.9164618 0.88476562 10.291016 C 0.88476562 10.665571 1.1879473 10.966797 1.5625 10.966797 L 2.4492188 10.966797 C 2.7214512 13.799261 5.0938782 16 8 16 C 10.906122 16 13.278549 13.799261 13.550781 10.966797 L 14.439453 10.966797 C 14.814004 10.966797 15.115234 10.665568 15.115234 10.291016 C 15.115234 9.9164603 14.814006 9.6152344 14.439453 9.6152344 L 13.578125 9.6152344 L 13.578125 7.9667969 L 14.439453 7.9667969 C 14.814004 7.9667969 15.115234 7.6655687 15.115234 7.2910156 C 15.115234 6.9164607 14.814006 6.6152344 14.439453 6.6152344 L 13.578125 6.6152344 L 13.578125 6.1484375 L 2.421875 6.1484375 z "
     id="rect826"
     transform="scale(0.26458333)"
     inkscape:label="#" />
</svg>
